X:164
T:Welcome Poor Paddy Home
M:3/4
L:1/4
K:G
G,/A,/|"G"B,2 B,|"D"A,2 B,/A,/|"G"G,3-|G,2 D|"G"G>A B|"D"AGF|"C"E3-|E2 D|!
w:I_ am a true born_ Irish-man  I'll ne- ver de- ny what I am._ *
"G"G>A B|"D"AGF|"C"EFG|"G"G,2 G,/A,/|"D"B,>D B,|"Am"A,>B, A,|"G"G,3-|G,2|
w:I was born in sweet Tip- pe- ra-ry town. Three_ thou- -sand miles a- -way.
W:
W:
W: * Chorus *
W:Hurray me boys hurray
W:No more do I wish for to roam
W:For the sun it will shine in the harvest time
W:To welcome poor Paddy home
W:
W:
W:
W:
W:The girls thay are gay and frisky
W:They'd take you by the hand
W:Saying Jimmy mo chroi will you come with me
W:To welcome poor Paddy home
W: ~ Music Break ~
W:
W:
W:
W:In came the foreign nation
W:And scattered all over the land
W:The horse, the cow, the goat, sheep and sow
W:Came into the stranger's hands
W: ~ Chorus ~
W:
W:
W:
W:
W:The Scotsman can boast of the thistle
W:And England can boast of the rose
W:But Paddy can boast of the Emerald Isle
W:Where the dear little shamrock grows.
W: ~ Chorus ~

